packages/foundations/assets/icons/functional/images/transportation/pedestrian_24_inverted.svg

<svg width="24" height="24" viewBox="0 0 24 24" fill="none" xmlns="http://www.w3.org/2000/svg">
<g clip-path="url(#clip0_2214_6742)">
<path fill-rule="evenodd" clip-rule="evenodd" d="M9.63566 16.0868C10.133 16.0868 10.7763 16.6638 10.4931 17.3651C9.619 19.3599 9.61766 19.3584 8.74393 21.3536C8.57167 21.7777 8.24829 21.925 7.88811 21.925C7.37159 21.925 6.72767 21.3536 7.06723 20.6007C7.92196 18.6235 8.03338 18.3597 8.78004 16.6271C8.94265 16.2649 9.32278 16.0868 9.63566 16.0868ZM12.3742 8.68074C12.2726 10.2939 12.1699 11.907 12.066 13.5199C12.9613 14.4029 13.8521 15.2955 14.7383 16.1975C14.79 16.2501 14.9522 16.5738 14.9664 16.63C15.4949 18.7185 15.4951 18.7201 16.0126 20.8156C16.1303 21.3976 15.6454 21.9243 15.0992 21.9243C14.723 21.9243 14.4036 21.7499 14.2161 21.2391C13.8843 19.9378 13.5558 18.634 13.2306 17.3276L10.3825 14.4907C10.2267 14.3156 10.1594 14.1647 10.1695 13.9546C10.315 11.6433 10.4012 10.2792 10.4283 9.86213C10.4316 9.77293 10.3779 9.76956 10.3228 9.78902C10.1685 9.83776 9.77816 10.0124 9.15179 10.3129C9.04709 10.9289 8.94013 11.5437 8.8309 12.1572C8.73211 12.6422 8.33717 12.9258 7.91888 12.9258C7.40946 12.9258 6.89174 12.4813 7.00653 11.8739C7.17486 10.7011 7.17097 10.6988 7.346 9.52916C7.39425 9.10616 7.77364 8.88077 7.92163 8.81522C8.9209 8.3928 9.92108 7.97521 10.9222 7.56245C11.9398 7.16134 12.4198 7.90896 12.3742 8.68074ZM14.7689 9.76441C15.372 10.0767 15.9535 10.3765 16.5135 10.6639C16.8454 10.8139 17.0274 11.1735 17.0274 11.46C17.0274 12.0027 16.5135 12.5994 15.6818 12.3148C15.1242 12.035 14.5351 11.7317 13.9147 11.4048C13.3978 11.0732 13.3651 10.5189 13.4573 10.2607C13.6102 9.83285 14.1845 9.48937 14.7689 9.76441ZM11.9529 2.07501C13.0192 2.07501 13.8779 2.93369 13.8779 4C13.8779 5.06627 13.0191 5.92508 11.9529 5.92508C10.9066 5.92508 10.0279 5.05558 10.0279 4C10.0165 2.78292 10.8799 2.08337 11.9529 2.07501Z" fill="#1A1C1F"/>
</g>
<defs>
<clipPath id="clip0_2214_6742">
<rect width="24" height="24" fill="white"/>
</clipPath>
</defs>
</svg>

<svg xmlns="http://www.w3.org/2000/svg" width="24" height="24" fill="none"><g clip-path="url(#a)"><path fill="#1A1C1F" fill-rule="evenodd" d="M9.636 16.087c.497 0 1.14.577.857 1.278-.874 1.995-.875 1.993-1.75 3.989-.171.424-.495.571-.855.571-.516 0-1.16-.571-.82-1.324.854-1.977.965-2.241 1.712-3.974.163-.362.543-.54.856-.54m2.738-7.406-.308 4.839q1.343 1.325 2.672 2.678c.052.052.214.376.228.432.529 2.089.53 2.09 1.047 4.186.117.582-.368 1.108-.914 1.108-.376 0-.695-.174-.883-.685a709 709 0 0 1-.985-3.911l-2.848-2.837c-.156-.175-.224-.326-.213-.536l.258-4.093c.004-.09-.05-.092-.105-.073q-.232.073-1.171.524-.158.924-.321 1.844a.93.93 0 0 1-.912.769c-.51 0-1.027-.445-.912-1.052.168-1.173.164-1.175.339-2.345.048-.423.428-.648.576-.714q1.5-.633 3-1.253c1.018-.4 1.498.347 1.452 1.119m2.395 1.083q.905.47 1.745.9c.331.15.513.51.513.796 0 .543-.514 1.14-1.345.855q-.837-.42-1.767-.91c-.517-.332-.55-.886-.458-1.144.153-.428.727-.772 1.312-.497m-2.816-7.689c1.066 0 1.925.859 1.925 1.925a1.92 1.92 0 0 1-1.925 1.925A1.94 1.94 0 0 1 10.028 4c-.011-1.217.852-1.917 1.925-1.925" clip-rule="evenodd"/></g><defs><clipPath id="a"><path fill="#fff" d="M0 0h24v24H0z"/></clipPath></defs></svg>
